X:923
T:Aria
T:from Suite in A minor for Colascione
C:Giuseppe Antonio Brescianello
Z:Transcribed by Frank Nordberg - http://www.musicaviva.com
F:http://abc.musicaviva.com/tunes/brescianello-giuseppe-antonio/brescianello-aria/brescianello-aria-gtr1.abc
V:1 Program 1 24 up %Classical guitar
V:2 Program 1 24 merge down %Classical guitar
m:Tn2 = o3/4(3n/o/n/ m/4
M:3/4
L:1/8
Q:1/4=108
K:Am -8va
V:1
A>ce2^G2|A2E4|z fedcB|({d}cB)A2 z2|
V:2
A,4B,2|C6|D2^G,2A,2|A,4B,2|
%
V:1
z ea=gfe|f2 z2 z2|z dgfed|e2 z2 z2|
V:2
C2 z2 z2|z A,DCB,A,|B,2 z2 z2|z G,CB,A,G,|
%
V:1
z c [c2f2][B2e2]|z A [A2d2][G2c2]|deG2 TB2|(B4c2):|
V:2
A,2A,2G,2|F,2F,2E,2|F,2G,4|C6:|
%
V:1
|:c>eg2B2|(Bc)G2 z2|z agfed|ed (dc) z2|A>ce2^G2|
V:2
C4D2|E4 z2|F2G2G,2|C4B,2|A,4B,2|
%
V:1
A2E2 z2|z fedcB|({d}cB)A2 z2|z eagfe|f2 z2 z2|
V:2
C4 z2|D2^G,2A,2|A,4B,2|C2 z2 z2|z A,DCB,A,|
%
V:1
z dgfed|e2 z2 z2|z c [c2f2][B2e2]|z A [A2d2][G2c2]|BfdcBA|
V:2
B,2 z2 z2|z G,CB,A,G,|A,2A,2G,2|F,2F,2E,2|D4^D2|
%
V:1
(A4^G2)|E,/4^G/4B3/2 d2 c2|E,/4^G/4B3/2 d2 c2|BfedcB|(B4A2):|
V:2
E,6|E,2B,2A,2|E,2B,2A,2|D2E2E,2|A,6:|
W:
W:
W:  From Musica Viva - http://www.musicaviva.com
W:  the Internet center for free sheet music downloads.

